**kern	**kern
*staff1	*staff1
*solos[solo1,solo2,solo3]
*>head1
=1-	=1-	!!Chorus 1
*clefG2	*clefG2
*k[]	*k[]
*F:	*F:
*M4/4	*M4/4
2r	1F:dom
8r	.
{16c/LL	.
16d/J	.
8f/	.
8g/J	.
=2	=2
8a/L	1F:dom
8b-/	.
8cc/	.
8a/J	.
8b-\L	.
16cc\L	.
16b-\J	.
8a\	.
8f\J	.
=3	=3
8g/L	1F:dom
[8e-/J	.
4e-/]}	.
2r	.
=4	=4
1r	1F:dom
=5	=5
{4f/	1B-:dom
8ff\L	.
16dd\L	.
16cc\JJ	.
8a-/L	.
8f/J	.
4g/}	.
=6	=6
4r	1B-:dom
8r	.
{8e/	.
12f/L	.
12a/	.
12cc/J	.
8ee\L	.
8dd\J	.
=7	=7
8cc/L	1F:dom
8a/J	.
12b-\L	.
12cc\	.
12b-\J	.
8a/L	.
8f/	.
8d-/	.
8B-/J	.
=8	=8
8c/L	2A:min
8B-/	.
8A/	.
8G/J	2D:dom:9-
8G-/	.
8c/	.
8c#/J	.
=9	=9
8d/L	1G:min
8A/J	.
12B-/L	.
12d/	.
12f/J	.
12a/L	.
12a#/	.
12b/J	.
8cc/L	.
8an/J	.
=10	=10
8b-/L	1C:dom
8f/	.
8d-/	.
8B/J	.
8c/L	.
8B-/J	.
16A/LL	.
16c/	.
16e/	.
16g/JJ	.
=11	=11
6f/	1F:dom
6c/	.
6c/	.
2c/}	.
=12	=12
2r	2G:min
4r	2C:dom
*>solo1
{8ff\L	.
8ee\J	.
=13	=13	!!Chours 2
8ff\L	1F:dom
8cc\J}	.
4r	.
8r	.
{8a\L	.
8b-\	.
8cc\J	.
=14||	=14||
4r	1F:dom
8r	.
8a/	.
8b-\L	.
16cc\L	.
16b-\J	.
8a\	.
8g\J	.
=15	=15
8f/L	1F:dom
8e/	.
8e-/	.
8g/J	.
8d/L	.
8c/J}	.
4r	.
=16	=16
4r	2C:min
8r	.
{16c/LL	.
16e-/JJ	.
12g\L	2F:dom
12b-\	.
12dd\J	.
12aa-\L	.
12gg\	.
12gg-\J	.
=17	=17
8ff\L	1B-:dom
8dd\J}	.
4r	.
8r	.
{16gg\LL	.
16gg-\J	.
8ff\	.
8ee-\J	.
=18	=18
8dd\L	1B-:dom
8cc\J	.
12b-\L	.
12cc\	.
12b-\J	.
8a-/L	.
8f/	.
8d-/	.
8B/J	.
=19	=19
8c/L	1F:dom
8B-/J	.
16A/LL	.
16c/	.
16e/	.
16g/JJ	.
8cc/L	.
8g/	.
8e/	.
8c/J	.
=20	=20
47g/	1D:dom
[2cc\	.
8cc/L]	.
8g-/J	.
=21	=21
8g/L	1G:min
8a/	.
8b-/	.
8cc/J	.
8dd/L	.
8g/J}	.
4r	.
=22	=22
4r	1C:dom
{16g/LL	.
16a/	.
16b-/	.
16cc/JJ	.
16dd-\LL	.
16cc\	.
16b-\	.
16a\JJ	.
16g/LL	.
16f/	.
16e/	.
16g/JJ	.
=23	=23
16b-\LL	1F:dom
16dd-\	.
16cc\	.
16a\JJ	.
24b-\LL	.
24cc\	.
24b-\JJ	.
16a/LL	.
16g/JJ	.
4f/}	.
4r	.
=24	=24
2r	1C:dom
8r	.
*>solo2
{8e/L	.
8c/	.
8d/J	.
=25	=25
8e/L	1F:dom	!!Chorus 3
8g/J	.
8r	.
8e/	.
8f/L	.
8g/	.
8a/	.
8b-/J	.
=26||	=26||
8cc/L	1F:dom
8a/J	.
12b-\L	.
12cc\	.
12b-\J	.
8a/L	.
8f/	.
8d/	.
8c/J	.
=27	=27
4f/	1F:dom
8f/L	.
[8f/J	.
4f/]	.
[4f/	.
=28	=28
4.f/]	1F:dom
[8f/	.
4f/]}	.
4r	.
=29	=29
2r	1B-:dom
8r	.
{8A/	.
12B-/L	.
12d/	.
12f/J	.
=30	=30
8a-/L	1B-:dom
8f/	.
8g/	.
8f/J	.
8r	.
8e-/L	.
8d/	.
8d-/J	.
=31	=31
8c/L	1F:dom
8B-/J	.
12A/L	.
12c/	.
12g/J	.
8cc/L	.
8g/	.
8e/	.
8c/J	.
=32	=32
4g-/	1D:dom
2cc\	.
8a/L	.
8b-/J}	.
=33	=33
4r	1G:min
8r	.
{8f#/	.
12g\L	.
12b-\	.
12dd\J	.
8ff\L	.
16dd\L	.
16cc\JJ	.
=34	=34
8b-/L	1C:dom
8a/	.
8g/	.
8f/J	.
8e/L	.
8g/	.
8b-/	.
8dd/J	.
=35	=35
8cc/L	1F:dom
8a/J	.
12b-\L	.
12cc\	.
12b-\J	.
8a/L	.
[8cc/J	.
4cc\]}	.
=36	=36
2r	2G:min
4r	2C:dom
8r	.
*>solo3
{[8b\	.
=37	=37
4b\]	1F:dom	!!Chorus 4
8ff\L	.
8ee-\J	.
8dd\L	.
8dd-\	.
8cc\	.
8a\J	.
=38||	=38||
8b-/L	1B-:dom
8f/	.
8g/	.
8a-/J}	.
2r	.
=39	=39
{16ee\LL	1F:maj
16ee-\	.
16dd\	.
16dd-\J	.
8cc\	.
8a\J	.
8b-\L	.
16cc\L	.
16b-\J	.
8a\	.
8g\J	.
=40	=40
8f/L	2C:min
8e/	.
8e-/	.
8g/J	.
8d/L	2F:dom
8c/	.
8f/	.
8e-/J	.
=41	=41
8d/L	1B-:dom
8F/	.
8A-/	.
8B/J	.
8e/L	.
8B/	.
8A-/	.
8F/J	.
=42	=42
2d/	1B-:dom
8B-/L	.
8G/	.
8c/	.
8B-/J	.
=43	=43
12A/L	1F:dom
12c/	.
12e/J	.
8g/L	.
8e/J	.
16f/LL	.
16g/	.
16a/	.
16b-/J	.
8cc/	.
8b-/J	.
=44	=44
8a/L	2F:dom
8g/	.
8f#/	.
8a/J	.
8cc\L	2D:dom
8ee-\	.
8dd\	.
8a\J	.
=45	=45
8cc\L	1G:min
[8b-\J	.
4b-\]}	.
2r	.
=46	=46
4r	2G:min
{16g/LL	.
16a/	.
16b-/	.
16cc/JJ	.
16dd-\LL2C:dom	.
16cc\	.
16b-\	.
16a\JJ	.
16g/LL	.
16f/	.
16e/	.
16g/JJ	.
=47	=47
16b-\LL	1F:dom
16dd-\	.
16b-\	.
16bn\JJ	.
16cc/LL	.
16b-/	.
16a/	.
16g/JJ	.
16f/LL	.
16d-/	.
16c/	.
16B-/JJ	.
16A/LL	.
16c/	.
16dn/	.
16e/JJ	.
=48	=48
4g/}	2G:min
4r	.
{8a-/	2C:dom
24e/LL	.
24d/	.
24c/JJ	.
8B-/L	.
8g/J	.
=49	=49
6f/	1F:dom
6c/	.
6c/	.
2c/}	.
==	==
*-	*-
